images/3232814.svg

<?xml version="1.0" encoding="UTF-8"?>
<svg xmlns="http://www.w3.org/2000/svg" xmlns:xlink="http://www.w3.org/1999/xlink" width="300pt" height="300pt" viewBox="0 0 300 300" version="1.1">
<defs>
<g>
<symbol overflow="visible" id="glyph0-0">
<path style="stroke:none;" d="M 0.453125 1.59375 L 0.453125 -6.34375 L 4.953125 -6.34375 L 4.953125 1.59375 Z M 0.953125 1.09375 L 4.453125 1.09375 L 4.453125 -5.84375 L 0.953125 -5.84375 Z M 0.953125 1.09375 "/>
</symbol>
<symbol overflow="visible" id="glyph0-1">
<path style="stroke:none;" d="M 0.890625 -6.5625 L 2.078125 -6.5625 L 4.984375 -1.078125 L 4.984375 -6.5625 L 5.84375 -6.5625 L 5.84375 0 L 4.65625 0 L 1.75 -5.484375 L 1.75 0 L 0.890625 0 Z M 0.890625 -6.5625 "/>
</symbol>
<symbol overflow="visible" id="glyph0-2">
<path style="stroke:none;" d="M 3.546875 -5.953125 C 2.898438 -5.953125 2.382812 -5.710938 2 -5.234375 C 1.625 -4.753906 1.4375 -4.101562 1.4375 -3.28125 C 1.4375 -2.445312 1.625 -1.789062 2 -1.3125 C 2.382812 -0.832031 2.898438 -0.59375 3.546875 -0.59375 C 4.191406 -0.59375 4.703125 -0.832031 5.078125 -1.3125 C 5.453125 -1.789062 5.640625 -2.445312 5.640625 -3.28125 C 5.640625 -4.101562 5.453125 -4.753906 5.078125 -5.234375 C 4.703125 -5.710938 4.191406 -5.953125 3.546875 -5.953125 Z M 3.546875 -6.6875 C 4.460938 -6.6875 5.195312 -6.375 5.75 -5.75 C 6.300781 -5.132812 6.578125 -4.3125 6.578125 -3.28125 C 6.578125 -2.238281 6.300781 -1.410156 5.75 -0.796875 C 5.195312 -0.179688 4.460938 0.125 3.546875 0.125 C 2.617188 0.125 1.878906 -0.179688 1.328125 -0.796875 C 0.773438 -1.410156 0.5 -2.238281 0.5 -3.28125 C 0.5 -4.3125 0.773438 -5.132812 1.328125 -5.75 C 1.878906 -6.375 2.617188 -6.6875 3.546875 -6.6875 Z M 3.546875 -6.6875 "/>
</symbol>
</g>
</defs>
<g id="surface38029">
<rect x="0" y="0" width="300" height="300" style="fill:rgb(100%,100%,100%);fill-opacity:1;stroke:none;"/>
<path style="fill:none;stroke-width:1.2;stroke-linecap:butt;stroke-linejoin:miter;stroke:rgb(0%,0%,0%);stroke-opacity:1;stroke-miterlimit:10;" d="M 189.628906 192.050781 L 184.132812 181.207031 "/>
<path style="fill:none;stroke-width:1.2;stroke-linecap:butt;stroke-linejoin:miter;stroke:rgb(0%,0%,100%);stroke-opacity:1;stroke-miterlimit:10;" d="M 184.132812 181.207031 L 178.632812 170.367188 "/>
<path style="fill:none;stroke-width:1.2;stroke-linecap:butt;stroke-linejoin:miter;stroke:rgb(0%,0%,100%);stroke-opacity:1;stroke-miterlimit:10;" d="M 178.632812 170.367188 L 185.273438 160.183594 "/>
<path style="fill:none;stroke-width:1.2;stroke-linecap:butt;stroke-linejoin:miter;stroke:rgb(0%,0%,0%);stroke-opacity:1;stroke-miterlimit:10;" d="M 185.273438 160.183594 L 191.914062 150 "/>
<path style="fill:none;stroke-width:1.2;stroke-linecap:butt;stroke-linejoin:miter;stroke:rgb(0%,0%,0%);stroke-opacity:1;stroke-miterlimit:10;" d="M 154.355469 169.046875 L 166.496094 169.707031 "/>
<path style="fill:none;stroke-width:1.2;stroke-linecap:butt;stroke-linejoin:miter;stroke:rgb(0%,0%,100%);stroke-opacity:1;stroke-miterlimit:10;" d="M 166.496094 169.707031 L 178.632812 170.367188 "/>
<path style=" stroke:none;fill-rule:nonzero;fill:rgb(100%,100%,100%);fill-opacity:1;" d="M 175.632812 164.867188 L 182.632812 164.867188 L 182.632812 175.867188 L 175.632812 175.867188 Z M 175.632812 164.867188 "/>
<g style="fill:rgb(0%,0%,100%);fill-opacity:1;">
  <use xlink:href="#glyph0-1" x="175.632812" y="173.530273"/>
</g>
<path style="fill:none;stroke-width:1.2;stroke-linecap:butt;stroke-linejoin:miter;stroke:rgb(0%,0%,0%);stroke-opacity:1;stroke-miterlimit:10;" d="M 191.914062 150 L 204.054688 150.660156 "/>
<path style="fill:none;stroke-width:1.2;stroke-linecap:butt;stroke-linejoin:miter;stroke:rgb(0%,0%,100%);stroke-opacity:1;stroke-miterlimit:10;" d="M 204.054688 150.660156 L 216.195312 151.320312 "/>
<path style="fill:none;stroke-width:1.2;stroke-linecap:butt;stroke-linejoin:miter;stroke:rgb(0%,0%,0%);stroke-opacity:1;stroke-miterlimit:10;" d="M 194.652344 144.417969 L 204.363281 144.945312 "/>
<path style="fill:none;stroke-width:1.2;stroke-linecap:butt;stroke-linejoin:miter;stroke:rgb(0%,0%,100%);stroke-opacity:1;stroke-miterlimit:10;" d="M 204.363281 144.945312 L 214.078125 145.476562 "/>
<path style="fill:none;stroke-width:1.2;stroke-linecap:butt;stroke-linejoin:miter;stroke:rgb(0%,0%,0%);stroke-opacity:1;stroke-miterlimit:10;" d="M 180.917969 128.316406 L 191.914062 150 "/>
<path style="fill:none;stroke-width:1.2;stroke-linecap:butt;stroke-linejoin:miter;stroke:rgb(0%,0%,100%);stroke-opacity:1;stroke-miterlimit:10;" d="M 216.195312 151.320312 L 222.835938 141.136719 "/>
<path style="fill:none;stroke-width:1.2;stroke-linecap:butt;stroke-linejoin:miter;stroke:rgb(0%,0%,0%);stroke-opacity:1;stroke-miterlimit:10;" d="M 222.835938 141.136719 L 229.476562 130.953125 "/>
<path style=" stroke:none;fill-rule:nonzero;fill:rgb(100%,100%,100%);fill-opacity:1;" d="M 213.195312 145.820312 L 220.195312 145.820312 L 220.195312 156.820312 L 213.195312 156.820312 Z M 213.195312 145.820312 "/>
<g style="fill:rgb(0%,0%,100%);fill-opacity:1;">
  <use xlink:href="#glyph0-1" x="213.195312" y="154.483398"/>
</g>
<path style="fill:none;stroke-width:1.2;stroke-linecap:butt;stroke-linejoin:miter;stroke:rgb(0%,0%,0%);stroke-opacity:1;stroke-miterlimit:10;" d="M 229.476562 130.953125 L 223.976562 120.109375 "/>
<path style="fill:none;stroke-width:1.2;stroke-linecap:butt;stroke-linejoin:miter;stroke:rgb(0%,0%,100%);stroke-opacity:1;stroke-miterlimit:10;" d="M 223.976562 120.109375 L 218.480469 109.269531 "/>
<path style="fill:none;stroke-width:1.2;stroke-linecap:butt;stroke-linejoin:miter;stroke:rgb(0%,0%,0%);stroke-opacity:1;stroke-miterlimit:10;" d="M 223.273438 131.371094 L 218.875 122.699219 "/>
<path style="fill:none;stroke-width:1.2;stroke-linecap:butt;stroke-linejoin:miter;stroke:rgb(0%,0%,100%);stroke-opacity:1;stroke-miterlimit:10;" d="M 218.875 122.699219 L 214.476562 114.023438 "/>
<path style="fill:none;stroke-width:1.2;stroke-linecap:butt;stroke-linejoin:miter;stroke:rgb(0%,0%,0%);stroke-opacity:1;stroke-miterlimit:10;" d="M 229.476562 130.953125 L 241.613281 131.613281 "/>
<path style="fill:none;stroke-width:1.2;stroke-linecap:butt;stroke-linejoin:miter;stroke:rgb(100%,0%,0%);stroke-opacity:1;stroke-miterlimit:10;" d="M 241.613281 131.613281 L 253.753906 132.273438 "/>
<path style="fill:none;stroke-width:1.2;stroke-linecap:butt;stroke-linejoin:miter;stroke:rgb(0%,0%,100%);stroke-opacity:1;stroke-miterlimit:10;" d="M 218.480469 109.269531 L 206.339844 108.609375 "/>
<path style="fill:none;stroke-width:1.2;stroke-linecap:butt;stroke-linejoin:miter;stroke:rgb(0%,0%,0%);stroke-opacity:1;stroke-miterlimit:10;" d="M 206.339844 108.609375 L 194.199219 107.949219 "/>
<path style=" stroke:none;fill-rule:nonzero;fill:rgb(100%,100%,100%);fill-opacity:1;" d="M 215.480469 103.769531 L 222.480469 103.769531 L 222.480469 114.769531 L 215.480469 114.769531 Z M 215.480469 103.769531 "/>
<g style="fill:rgb(0%,0%,100%);fill-opacity:1;">
  <use xlink:href="#glyph0-1" x="215.480469" y="112.432617"/>
</g>
<path style="fill:none;stroke-width:1.2;stroke-linecap:butt;stroke-linejoin:miter;stroke:rgb(0%,0%,0%);stroke-opacity:1;stroke-miterlimit:10;" d="M 194.199219 107.949219 L 180.917969 128.316406 "/>
<path style="fill:none;stroke-width:1.2;stroke-linecap:butt;stroke-linejoin:miter;stroke:rgb(0%,0%,0%);stroke-opacity:1;stroke-miterlimit:10;" d="M 197.664062 113.109375 L 187.039062 129.402344 "/>
<path style="fill:none;stroke-width:1.2;stroke-linecap:butt;stroke-linejoin:miter;stroke:rgb(0%,0%,0%);stroke-opacity:1;stroke-miterlimit:10;" d="M 180.917969 128.316406 L 168.78125 127.65625 "/>
<path style="fill:none;stroke-width:1.2;stroke-linecap:butt;stroke-linejoin:miter;stroke:rgb(0%,0%,100%);stroke-opacity:1;stroke-miterlimit:10;" d="M 168.78125 127.65625 L 156.640625 126.996094 "/>
<path style="fill:none;stroke-width:1.2;stroke-linecap:butt;stroke-linejoin:miter;stroke:rgb(0%,0%,100%);stroke-opacity:1;stroke-miterlimit:10;" d="M 156.640625 126.996094 L 150 137.179688 "/>
<path style="fill:none;stroke-width:1.2;stroke-linecap:butt;stroke-linejoin:miter;stroke:rgb(0%,0%,0%);stroke-opacity:1;stroke-miterlimit:10;" d="M 150 137.179688 L 143.359375 147.359375 "/>
<path style="fill:none;stroke-width:1.2;stroke-linecap:butt;stroke-linejoin:miter;stroke:rgb(0%,0%,100%);stroke-opacity:1;stroke-miterlimit:10;" d="M 160.105469 132.15625 L 154.792969 140.304688 "/>
<path style="fill:none;stroke-width:1.2;stroke-linecap:butt;stroke-linejoin:miter;stroke:rgb(0%,0%,0%);stroke-opacity:1;stroke-miterlimit:10;" d="M 154.792969 140.304688 L 149.480469 148.449219 "/>
<path style=" stroke:none;fill-rule:nonzero;fill:rgb(100%,100%,100%);fill-opacity:1;" d="M 153.640625 121.496094 L 160.640625 121.496094 L 160.640625 132.496094 L 153.640625 132.496094 Z M 153.640625 121.496094 "/>
<g style="fill:rgb(0%,0%,100%);fill-opacity:1;">
  <use xlink:href="#glyph0-1" x="153.640625" y="130.15918"/>
</g>
<path style="fill:none;stroke-width:1.2;stroke-linecap:butt;stroke-linejoin:miter;stroke:rgb(0%,0%,0%);stroke-opacity:1;stroke-miterlimit:10;" d="M 143.359375 147.359375 L 154.355469 169.046875 "/>
<path style="fill:none;stroke-width:1.2;stroke-linecap:butt;stroke-linejoin:miter;stroke:rgb(0%,0%,0%);stroke-opacity:1;stroke-miterlimit:10;" d="M 143.359375 147.359375 L 119.082031 146.042969 "/>
<path style="fill:none;stroke-width:1.2;stroke-linecap:butt;stroke-linejoin:miter;stroke:rgb(0%,0%,0%);stroke-opacity:1;stroke-miterlimit:10;" d="M 151.960938 167.484375 L 145.320312 177.667969 "/>
<path style="fill:none;stroke-width:1.2;stroke-linecap:butt;stroke-linejoin:miter;stroke:rgb(100%,0%,0%);stroke-opacity:1;stroke-miterlimit:10;" d="M 145.320312 177.667969 L 138.679688 187.851562 "/>
<path style="fill:none;stroke-width:1.2;stroke-linecap:butt;stroke-linejoin:miter;stroke:rgb(0%,0%,0%);stroke-opacity:1;stroke-miterlimit:10;" d="M 156.75 170.609375 L 150.109375 180.792969 "/>
<path style="fill:none;stroke-width:1.2;stroke-linecap:butt;stroke-linejoin:miter;stroke:rgb(100%,0%,0%);stroke-opacity:1;stroke-miterlimit:10;" d="M 150.109375 180.792969 L 143.46875 190.976562 "/>
<path style=" stroke:none;fill-rule:nonzero;fill:rgb(100%,100%,100%);fill-opacity:1;" d="M 133.074219 183.914062 L 141.074219 183.914062 L 141.074219 194.914062 L 133.074219 194.914062 Z M 133.074219 183.914062 "/>
<g style="fill:rgb(100%,0%,0%);fill-opacity:1;">
  <use xlink:href="#glyph0-2" x="133.074219" y="192.577148"/>
</g>
<path style="fill:none;stroke-width:1.2;stroke-linecap:butt;stroke-linejoin:miter;stroke:rgb(0%,0%,0%);stroke-opacity:1;stroke-miterlimit:10;" d="M 119.082031 146.042969 L 108.085938 124.355469 "/>
<path style="fill:none;stroke-width:1.2;stroke-linecap:butt;stroke-linejoin:miter;stroke:rgb(0%,0%,0%);stroke-opacity:1;stroke-miterlimit:10;" d="M 112.878906 146.460938 L 104.082031 129.113281 "/>
<path style="fill:none;stroke-width:1.2;stroke-linecap:butt;stroke-linejoin:miter;stroke:rgb(0%,0%,0%);stroke-opacity:1;stroke-miterlimit:10;" d="M 105.800781 166.40625 L 119.082031 146.042969 "/>
<path style="fill:none;stroke-width:1.2;stroke-linecap:butt;stroke-linejoin:miter;stroke:rgb(0%,0%,0%);stroke-opacity:1;stroke-miterlimit:10;" d="M 108.085938 124.355469 L 83.804688 123.035156 "/>
<path style="fill:none;stroke-width:1.2;stroke-linecap:butt;stroke-linejoin:miter;stroke:rgb(0%,0%,0%);stroke-opacity:1;stroke-miterlimit:10;" d="M 83.804688 123.035156 L 70.523438 143.402344 "/>
<path style="fill:none;stroke-width:1.2;stroke-linecap:butt;stroke-linejoin:miter;stroke:rgb(0%,0%,0%);stroke-opacity:1;stroke-miterlimit:10;" d="M 87.269531 128.199219 L 76.644531 144.492188 "/>
<path style="fill:none;stroke-width:1.2;stroke-linecap:butt;stroke-linejoin:miter;stroke:rgb(0%,0%,0%);stroke-opacity:1;stroke-miterlimit:10;" d="M 70.523438 143.402344 L 81.519531 165.089844 "/>
<path style="fill:none;stroke-width:1.2;stroke-linecap:butt;stroke-linejoin:miter;stroke:rgb(0%,0%,0%);stroke-opacity:1;stroke-miterlimit:10;" d="M 70.523438 143.402344 L 58.386719 142.742188 "/>
<path style="fill:none;stroke-width:1.2;stroke-linecap:butt;stroke-linejoin:miter;stroke:rgb(100%,0%,0%);stroke-opacity:1;stroke-miterlimit:10;" d="M 58.386719 142.742188 L 46.246094 142.082031 "/>
<path style="fill:none;stroke-width:1.2;stroke-linecap:butt;stroke-linejoin:miter;stroke:rgb(0%,0%,0%);stroke-opacity:1;stroke-miterlimit:10;" d="M 81.519531 165.089844 L 105.800781 166.40625 "/>
<path style="fill:none;stroke-width:1.2;stroke-linecap:butt;stroke-linejoin:miter;stroke:rgb(0%,0%,0%);stroke-opacity:1;stroke-miterlimit:10;" d="M 84.257812 159.507812 L 103.683594 160.5625 "/>
<path style="fill:none;stroke-width:1.2;stroke-linecap:butt;stroke-linejoin:miter;stroke:rgb(100%,0%,0%);stroke-opacity:1;stroke-miterlimit:10;" d="M 46.246094 142.082031 L 40.75 131.242188 "/>
<path style="fill:none;stroke-width:1.2;stroke-linecap:butt;stroke-linejoin:miter;stroke:rgb(0%,0%,0%);stroke-opacity:1;stroke-miterlimit:10;" d="M 40.75 131.242188 L 35.25 120.398438 "/>
<path style=" stroke:none;fill-rule:nonzero;fill:rgb(100%,100%,100%);fill-opacity:1;" d="M 42.246094 136.582031 L 50.246094 136.582031 L 50.246094 147.582031 L 42.246094 147.582031 Z M 42.246094 136.582031 "/>
<g style="fill:rgb(100%,0%,0%);fill-opacity:1;">
  <use xlink:href="#glyph0-2" x="42.246094" y="145.245117"/>
</g>
<path style="fill:none;stroke-width:1.2;stroke-linecap:butt;stroke-linejoin:miter;stroke:rgb(100%,0%,0%);stroke-opacity:1;stroke-miterlimit:10;" d="M 253.753906 132.273438 L 259.25 143.117188 "/>
<path style="fill:none;stroke-width:1.2;stroke-linecap:butt;stroke-linejoin:miter;stroke:rgb(0%,0%,0%);stroke-opacity:1;stroke-miterlimit:10;" d="M 259.25 143.117188 L 264.75 153.957031 "/>
<path style=" stroke:none;fill-rule:nonzero;fill:rgb(100%,100%,100%);fill-opacity:1;" d="M 249.753906 126.773438 L 257.753906 126.773438 L 257.753906 137.773438 L 249.753906 137.773438 Z M 249.753906 126.773438 "/>
<g style="fill:rgb(100%,0%,0%);fill-opacity:1;">
  <use xlink:href="#glyph0-2" x="249.753906" y="135.436523"/>
</g>
</g>
</svg>

<svg xmlns="http://www.w3.org/2000/svg" xmlns:xlink="http://www.w3.org/1999/xlink" width="300pt" height="300pt" viewBox="0 0 300 300"><defs><symbol overflow="visible"><path d="M.453 1.594v-7.938h4.5v7.938zm.5-.5h3.5v-6.938h-3.5zm0 0"/></symbol><symbol overflow="visible" id="a"><path d="M.89-6.563H2.08l2.906 5.485v-5.484h.86V0H4.656L1.75-5.484V0H.89zm0 0"/></symbol><symbol overflow="visible" id="b"><path d="M3.547-5.953c-.65 0-1.164.242-1.547.72-.375.48-.563 1.13-.563 1.952 0 .835.188 1.49.563 1.967.383.48.898.72 1.547.72.644 0 1.156-.24 1.53-.72.376-.476.564-1.132.564-1.968 0-.822-.187-1.474-.562-1.954-.375-.477-.887-.72-1.53-.72zm0-.734c.914 0 1.648.312 2.203.937.55.617.828 1.438.828 2.47 0 1.042-.277 1.87-.828 2.483-.555.617-1.29.922-2.203.922-.93 0-1.668-.305-2.22-.922C.774-1.41.5-2.237.5-3.28c0-1.033.273-1.853.828-2.47.55-.625 1.29-.938 2.22-.938zm0 0"/></symbol></defs><g><path fill="#fff" d="M0 0h300v300H0z"/><path d="M189.63 192.05l-5.497-10.843" stroke-width="1.2" stroke="#000" stroke-miterlimit="10" fill="none"/><path d="M184.133 181.207l-5.5-10.84M178.633 170.367l6.64-10.183" stroke-width="1.2" stroke="#00f" stroke-miterlimit="10" fill="none"/><path d="M185.273 160.184l6.64-10.184M154.355 169.047l12.14.66" stroke-width="1.2" stroke="#000" stroke-miterlimit="10" fill="none"/><path d="M166.496 169.707l12.137.66" stroke-width="1.2" stroke="#00f" stroke-miterlimit="10" fill="none"/><path d="M175.633 164.867h7v11h-7zm0 0" fill="#fff"/><use xlink:href="#a" x="175.633" y="173.53" fill="#00f"/><path d="M191.914 150l12.14.66" stroke-width="1.2" stroke="#000" stroke-miterlimit="10" fill="none"/><path d="M204.055 150.66l12.14.66" stroke-width="1.2" stroke="#00f" stroke-miterlimit="10" fill="none"/><path d="M194.652 144.418l9.71.527" stroke-width="1.2" stroke="#000" stroke-miterlimit="10" fill="none"/><path d="M204.363 144.945l9.715.532" stroke-width="1.2" stroke="#00f" stroke-miterlimit="10" fill="none"/><path d="M180.918 128.316L191.914 150" stroke-width="1.2" stroke="#000" stroke-miterlimit="10" fill="none"/><path d="M216.195 151.32l6.64-10.183" stroke-width="1.2" stroke="#00f" stroke-miterlimit="10" fill="none"/><path d="M222.836 141.137l6.64-10.184" stroke-width="1.2" stroke="#000" stroke-miterlimit="10" fill="none"/><path d="M213.195 145.82h7v11h-7zm0 0" fill="#fff"/><use xlink:href="#a" x="213.195" y="154.483" fill="#00f"/><path d="M229.477 130.953l-5.5-10.844" stroke-width="1.2" stroke="#000" stroke-miterlimit="10" fill="none"/><path d="M223.977 120.11l-5.497-10.84" stroke-width="1.2" stroke="#00f" stroke-miterlimit="10" fill="none"/><path d="M223.273 131.37l-4.398-8.67" stroke-width="1.2" stroke="#000" stroke-miterlimit="10" fill="none"/><path d="M218.875 122.7l-4.398-8.677" stroke-width="1.2" stroke="#00f" stroke-miterlimit="10" fill="none"/><path d="M229.477 130.953l12.136.66" stroke-width="1.2" stroke="#000" stroke-miterlimit="10" fill="none"/><path d="M241.613 131.613l12.14.66" stroke-width="1.2" stroke="#f00" stroke-miterlimit="10" fill="none"/><path d="M218.48 109.27l-12.14-.66" stroke-width="1.2" stroke="#00f" stroke-miterlimit="10" fill="none"/><path d="M206.34 108.61l-12.14-.66" stroke-width="1.2" stroke="#000" stroke-miterlimit="10" fill="none"/><path d="M215.48 103.77h7v11h-7zm0 0" fill="#fff"/><use xlink:href="#a" x="215.48" y="112.433" fill="#00f"/><path d="M194.2 107.95l-13.282 20.366M197.664 113.11L187.04 129.4M180.918 128.316l-12.137-.66" stroke-width="1.2" stroke="#000" stroke-miterlimit="10" fill="none"/><path d="M168.78 127.656l-12.14-.66M156.64 126.996L150 137.18" stroke-width="1.2" stroke="#00f" stroke-miterlimit="10" fill="none"/><path d="M150 137.18l-6.64 10.18" stroke-width="1.2" stroke="#000" stroke-miterlimit="10" fill="none"/><path d="M160.105 132.156l-5.312 8.15" stroke-width="1.2" stroke="#00f" stroke-miterlimit="10" fill="none"/><path d="M154.793 140.305l-5.313 8.144" stroke-width="1.2" stroke="#000" stroke-miterlimit="10" fill="none"/><path d="M153.64 121.496h7v11h-7zm0 0" fill="#fff"/><use xlink:href="#a" x="153.641" y="130.159" fill="#00f"/><path d="M143.36 147.36l10.995 21.687M143.36 147.36l-24.278-1.317M151.96 167.484l-6.64 10.184" stroke-width="1.2" stroke="#000" stroke-miterlimit="10" fill="none"/><path d="M145.32 177.668l-6.64 10.184" stroke-width="1.2" stroke="#f00" stroke-miterlimit="10" fill="none"/><path d="M156.75 170.61l-6.64 10.183" stroke-width="1.2" stroke="#000" stroke-miterlimit="10" fill="none"/><path d="M150.11 180.793l-6.64 10.184" stroke-width="1.2" stroke="#f00" stroke-miterlimit="10" fill="none"/><path d="M133.074 183.914h8v11h-8zm0 0" fill="#fff"/><use xlink:href="#b" x="133.074" y="192.577" fill="#f00"/><path d="M119.082 146.043l-10.996-21.688M112.88 146.46l-8.798-17.347M105.8 166.406l13.282-20.363M108.086 124.355l-24.28-1.32M83.805 123.035l-13.282 20.367M87.27 128.2L76.645 144.49M70.523 143.402L81.52 165.09M70.523 143.402l-12.136-.66" stroke-width="1.2" stroke="#000" stroke-miterlimit="10" fill="none"/><path d="M58.387 142.742l-12.14-.66" stroke-width="1.2" stroke="#f00" stroke-miterlimit="10" fill="none"/><path d="M81.52 165.09l24.28 1.316M84.258 159.508l19.426 1.054" stroke-width="1.2" stroke="#000" stroke-miterlimit="10" fill="none"/><path d="M46.246 142.082l-5.496-10.84" stroke-width="1.2" stroke="#f00" stroke-miterlimit="10" fill="none"/><path d="M40.75 131.242l-5.5-10.844" stroke-width="1.2" stroke="#000" stroke-miterlimit="10" fill="none"/><path d="M42.246 136.582h8v11h-8zm0 0" fill="#fff"/><use xlink:href="#b" x="42.246" y="145.245" fill="#f00"/><path d="M253.754 132.273l5.496 10.844" stroke-width="1.2" stroke="#f00" stroke-miterlimit="10" fill="none"/><path d="M259.25 143.117l5.5 10.84" stroke-width="1.2" stroke="#000" stroke-miterlimit="10" fill="none"/><path d="M249.754 126.773h8v11h-8zm0 0" fill="#fff"/><use xlink:href="#b" x="249.754" y="135.437" fill="#f00"/></g></svg>
